X: 215
T: In Summer.
C: music: C.M. von Weber.
C: words: Translated from the German.
Q: "Allegretto."
%R: march
B: "The Everyday Song Book", 1927
F: http://www.library.pitt.edu/happybirthday/pdf/The_Everyday_Song_Book.pdf
Z: 2016 John Chambers <jc:trillian.mit.edu>
M: 2/4
L: 1/8
K: Bb
% - - - - - - - - - - - - - - - - - - - - - - - - - - - - -
[| .B2 .d2 | c2 zF | G F G A | B2 zF | F d d c | (BG) F |]
w: 1.~Hum, bee, hum, For sum-mer days are come. The joy-ous fields of clov-*er
w: 2.~Sing, birds, sing, Let sum-mer car-ols ring. The whole round world re-joic-*es
w: 3.~Play, child, play, For sum-mer flies a-way. With bird and bee go rov-*ing,
F | G A B c | F2 Bz | .B2 .d2 | f3 (d/B/) | F (F/B/) d c | B2 z |]
w: Are white for the, dear rov-er. Hum, bee, hum, For* sum-mer* days are come.
w: In myr-i-ads of voi-ces. Sing, birds, sing, Let* sum-mer* car-ols ring.
w: Each sun-ny hour im-prov-ing. Play, child, play, For* sum-mer* flies a-way.
% - - - - - - - - - - - - - - - - - - - - - - - - - - - - -
